assets/icons/traton/image_inactive.svg

<svg xmlns="http://www.w3.org/2000/svg" width="32" height="32" viewBox="0 0 32 32" fill="none">
<path d="M4.00249 5.42062L26.5766 28.0059L27.9907 26.5911L5.41655 4.00586L4.00249 5.42062ZM2 26.0141H21.7627L19.7627 24.0132H5.41406L11 18.4245L14 21.4259L15.5889 19.8363L14.1748 18.4215L14 18.5964L11 15.5949L4 22.5984V8.24266L2 6.24167V26.0141ZM12.2402 8.00524H28V18.5964L21 11.593L18.4131 14.1811L19.8271 15.5959L21 14.4225L28 21.4259V23.7728L30 25.7738V6.00425H10.2402L12.2402 8.00524Z" fill="black" />
</svg>

<svg xmlns="http://www.w3.org/2000/svg" fill="none" viewBox="0 0 32 32"><path fill="#000" d="M4 5.4 26.6 28l1.4-1.4L5.4 4zM2 26h19.8l-2-2H5.4l5.6-5.6 3 3 1.6-1.6-1.4-1.4-.2.2-3-3-7 7V8.2l-2-2zM12.2 8H28v10.6l-7-7-2.6 2.6 1.4 1.4 1.2-1.2 7 7v2.4l2 2V6H10.2z"/></svg>
